src/pos-icons/aspect-ratio.svg

<svg height="24" viewBox="0 0 24 24" width="24" xmlns="http://www.w3.org/2000/svg"><path d="m19 12h-2v3h-3v2h5zm-12-3h3v-2h-5v5h2zm14-6h-18a2 2 0 0 0 -2 2v14a2 2 0 0 0 2 2h18a2 2 0 0 0 2-2v-14a2 2 0 0 0 -2-2m0 16h-18v-14h18z"/></svg>

<?xml version="1.0" encoding="UTF-8"?><!DOCTYPE svg PUBLIC "-//W3C//DTD SVG 1.1//EN" "http://www.w3.org/Graphics/SVG/1.1/DTD/svg11.dtd"><svg xmlns="http://www.w3.org/2000/svg" xmlns:xlink="http://www.w3.org/1999/xlink" version="1.1" id="mdi-aspect-ratio" width="24" height="24" viewBox="0 0 24 24"><path d="M19,12H17V15H14V17H19V12M7,9H10V7H5V12H7V9M21,3H3A2,2 0 0,0 1,5V19A2,2 0 0,0 3,21H21A2,2 0 0,0 23,19V5A2,2 0 0,0 21,3M21,19H3V5H21V19Z" /></svg>
